X: 226
T: I Expect to Give Something
C: Teton Sioux band 1911-1914
N: Derived from sioux221.krn
O: South Dakota, U.S.A.
N: Teton Sioux Music by Frances Densmore, 1918
Z: transcribed to **kern format by Craig Sapp
L: 1/8
M: 3/4
Q: 1/4=58
K: Bb clef=bass
%%linebreak <none>
G,/ [I:setbarnb 1]| 
G G G G- G3/ D/ | 
G< D D D D3/ B,/ | 
D< B, B, G, G, G, ||  
[M:2/4]G,4- | 
G,2G,/ G,3/ | 
C CC2 | 
F< E E C | 
B, B, G,/ G,3/ ||  
[M:3/4]B,< B, B,< G, G, G, ||  
[M:2/4]G,4 ||  
[M:3/4]G,4G,/ G,3/ ||  
[M:2/4]G G (G3/ D/) ||  
[M:3/4]G< D C C C (C/ B,/) | 
D< B, B, G, G, G, ||  
[M:2/4]G,4- | 
G,2G,/ G,3/ | 
C CC2 | 
F< E E C | 
B, B, G,/ G,3/ ||  
[M:3/4]B, B, B,< G, G, G, ||  
[M:2/4]G,4 | 
G,4 |]  



